X:1
T:Title
%%score { 1 | 2 }
L:1/8
Q:1/4=93
M:6/8
K:D
V:1 treble nm="Grand Piano"
V:2 bass 
V:1
 FFF G[B,EG][B,=F^G] | [A,FA]2 [DGB] [A,DF]3 | [B,D][F,D][F,D] [A,DF]2 [F,D] | [A,DF]3 [A,CE]3 | %4
w: D.~B.~Towner * * * * *||||
 [A,DF][A,DF][A,DF] [B,DG][B,EG][B,=F^G] | [A,FA]2 [DGB] [A,DF]3 | [B,D][F,D][F,D] [A,DF]2 [F,D] | %7
w: |||
 [G,CE]3 [F,D]3 | [CE][CE][DF] [EG][DF][CE] | [DF]2 [EG] [FA]3 | ^GFE B2 c | [DB]3 [CA]3 | %12
w: |||||
 ABA FED | [DG]2 [DB] A3 | DDD [A,DF]2[K:bass] [F,D] | [G,CE]3 [F,D]3 |] %16
w: ||||
V:2
 [D,A,D][D,A,D][D,A,D] [D,B,D]D,D, | D,2 D, D,3 | B,,B,,B,, A,,2 A,, | A,,3 A,,3 | D,D,D, D,D,D, | %5
 D,2 D, D,3 | B,,B,,B,, A,,2 A,, | A,,3 D,3 | [A,,A,][A,,A,][A,,A,] [A,,A,][A,,A,][A,,A,] | %9
 [D,A,]2 [D,A,] [D,D]3 | [E,B,E][E,A,E][E,^G,] [E,G,E]2 [E,G,E] | [A,,A,]3 [A,,E,]3 | %12
 [D,F,D][D,G,D][D,F,D] [D,A,D][D,G,D][D,F,] | [B,,G,]2 [G,,G,] [D,F,D]3 | %14
 [B,,F,][B,,F,][B,,F,] A,,2 A,, | A,,3 D,3 |] %16

